src/pages/Main/ui/Program/ScheduleItem/images/party.svg

<svg fill="none" height="30" viewBox="0 0 26 30" width="26" xmlns="http://www.w3.org/2000/svg"><path d="m18.7876 5.86728 1.5653.42441.5421 1.55263.8807-1.38308 1.6199-.04478-1.0212-1.27964.4582-1.58035-1.5119.59183-1.3358-.93093.087 1.64433-1.2833 1.00451zm-9.20667-.3487c.32293-.3743.28519-.94373-.08283-1.27217-.36696-.32844-.92789-.29005-1.25082.08424-.32188.37429-.28519.94373.08283 1.27217.36801.32844.92789.29005 1.25082-.08424zm-3.68328 6.07512.89959-.2101.68046.6355.08178-.9362.80418-.4618-.85031-.3679-.18244-.92024-.60706.70804-.91741-.10768.47391.80618-.38375.8552zm8.00195-6.6339 1.1135 1.19646.2568-1.6262 1.4637-.70593-1.4406-.75072-.2086-1.63367-1.1492 1.16233-1.5915-.30284.7318 1.46945-.7748 1.44598 1.5989-.25379zm-1.3106 2.56674-2.6411 9.07266 3.9821-8.55121zm6.3674-6.3118c.2621-.303918.2317-.766719-.0671-1.03331-.2999-.2665911-.7539-.2356666-1.016.068247-.2621.303914-.2328.766713.0671 1.033303.2988.26659.7538.23567 1.016-.06931zm-13.27054 13.70706-.68255 1.8117 2.9483.2058-2.26575-2.0186zm5.15954 2.4323 9.1081-8.9862-1.5497-1.38094zm12.0008-.3924c-.3229.3743-.2841.9438.0839 1.2711.368.3285.9279.2901 1.2508-.0842.3219-.3743.2841-.9437-.0828-1.2722-.3691-.3284-.929-.2911-1.2519.0843zm-10.6588 1.6326 7.5239-3.3526-.6847-1.2829-6.8392 4.6366zm5.558.9726-.4708-.8084-.3439.8723-.9017.2058.7088.6015-.0849.9352.7821-.4991.8482.3711-.2243-.9107.6091-.7048-.9216-.0629zm5.0012-6.1476.736-1.0376-1.2581.0373-.7434-1.0322-.3533 1.2284-1.1953.401 1.0401.7208.0042 1.2807.996-.7837 1.1984.3903-.4236-1.205zm3.0269-3.96051c-.2757-.24633-.6962-.21754-.9384.06292-.2421.28045-.2149.70809.0619.95439.2758.2463.6962.2175.9373-.0629.2422-.2805.215-.70808-.0618-.95441zm-16.4463 8.70681-4.73909-.3316-.8933 2.3684 8.59539.6025zm-9.3272 11.8345 2.89483-1.6016-2.231147-.1568-.663683 1.7574zm1.07783-2.8589 3.62771.2538 3.89927-2.1594-6.63368-.4649-.89435 2.3695zm2.20284-5.8383-.89435 2.3684 8.03028.563 3.5291-1.9546-.281-.2506-10.38508-.7262z" fill="#c1bfbf"/></svg>

<svg width="26" height="30" viewBox="0 0 26 30" fill="none" xmlns="http://www.w3.org/2000/svg">
    <path d="M18.7876 5.86728L20.3529 6.29169L20.895 7.84432L21.7757 6.46124L23.3956 6.41646L22.3744 5.13682L22.8326 3.55647L21.3207 4.1483L19.9849 3.21737L20.0719 4.8617L18.7886 5.86621L18.7876 5.86728ZM9.58093 5.51858C9.90386 5.14428 9.86612 4.57485 9.4981 4.24641C9.13114 3.91797 8.57021 3.95636 8.24728 4.33065C7.9254 4.70494 7.96209 5.27438 8.33011 5.60282C8.69812 5.93126 9.258 5.89287 9.58093 5.51858ZM5.89765 11.5937L6.79724 11.3836L7.4777 12.0191L7.55948 11.0829L8.36366 10.6211L7.51335 10.2532L7.33091 9.33296L6.72385 10.041L5.80644 9.93332L6.28035 10.7395L5.8966 11.5947L5.89765 11.5937ZM13.8996 4.9598L15.0131 6.15626L15.2699 4.53006L16.7336 3.82413L15.293 3.07341L15.0844 1.43974L13.9352 2.60207L12.3437 2.29923L13.0755 3.76868L12.3007 5.21466L13.8996 4.96087V4.9598ZM12.589 7.52654L9.9479 16.5992L13.93 8.04799L12.589 7.52654ZM18.9564 1.21474C19.2185 0.910822 19.1881 0.448021 18.8893 0.18143C18.5894 -0.0851611 18.1354 -0.0542366 17.8733 0.249677C17.6112 0.553591 17.6405 1.01639 17.9404 1.28298C18.2392 1.54957 18.6942 1.51865 18.9564 1.21367V1.21474ZM5.68586 14.9218L5.00331 16.7335L7.95161 16.9393L5.68586 14.9207V14.9218ZM10.8454 17.3541L19.9535 8.3679L18.4038 6.98696L10.8454 17.3541ZM22.8462 16.9617C22.5233 17.336 22.5621 17.9055 22.9301 18.2328C23.2981 18.5613 23.858 18.5229 24.1809 18.1486C24.5028 17.7743 24.465 17.2049 24.0981 16.8764C23.729 16.548 23.1691 16.5853 22.8462 16.9607V16.9617ZM12.1874 18.5943L19.7113 15.2417L19.0266 13.9588L12.1874 18.5954V18.5943ZM17.7454 19.5669L17.2746 18.7585L16.9307 19.6308L16.029 19.8366L16.7378 20.4381L16.6529 21.3733L17.435 20.8742L18.2832 21.2453L18.0589 20.3346L18.668 19.6298L17.7464 19.5669H17.7454ZM22.7466 13.4193L23.4826 12.3817L22.2245 12.419L21.4811 11.3868L21.1278 12.6152L19.9325 13.0162L20.9726 13.737L20.9768 15.0177L21.9728 14.234L23.1712 14.6243L22.7476 13.4193H22.7466ZM25.7735 9.45879C25.4978 9.21246 25.0773 9.24125 24.8351 9.52171C24.593 9.80216 24.6202 10.2298 24.897 10.4761C25.1728 10.7224 25.5932 10.6936 25.8343 10.4132C26.0765 10.1327 26.0493 9.70512 25.7725 9.45879H25.7735ZM9.3272 18.1656L4.58811 17.834L3.69481 20.2024L12.2902 20.8049L9.3272 18.1656ZM0 30.0001L2.89483 28.3985L0.663683 28.2417L0 29.9991L0 30.0001ZM1.07783 27.1412L4.70554 27.395L8.60481 25.2356L1.97113 24.7707L1.07678 27.1402L1.07783 27.1412ZM3.28067 21.3029L2.38632 23.6713L10.4166 24.2343L13.9457 22.2797L13.6647 22.0291L3.27962 21.3029H3.28067Z" fill="#C1BFBF"/>
</svg>
